Gurmukhi/0A01.svg

<svg enable-background="new 0 0 336 592" viewBox="0 0 336 592" xmlns="http://www.w3.org/2000/svg"><path d="m176.41803 137.517105c7.614166 15.165939 21.617065 22.806976 38.297561 21.154724 13.546936-1.341842 26.686219-13.002609 30.729126-27.284118.180695-.638276.184235-1.334275.414429-1.949463.57251-1.52993.924408-3.404114 3.098435-3.36641 2.437042.042252 2.902542 2.093781 3.168075 3.842652.901657 5.938583 1.075607 11.880432-.306579 17.8125-4.705338 20.19487-19.408921 32.116256-39.167313 32.719085-22.417389.683945-38.802582-12.95047-43.66153-32.118911-1.492813-5.889084-1.69609-11.847534-1.005691-17.837189.18277-1.585678.496261-3.418839 2.750381-3.583038 2.281678-.166191 2.652726 1.640182 3.197022 3.174591.831741 2.344696 1.557953 4.726837 2.486084 7.435577z"/><path d="m220.2108 115.726105c5.275513 6.116546 6.473587 12.619827 3.173035 19.6445-2.484696 5.288239-8.655075 8.400132-14.990418 7.742585-6.628021-.687897-11.701538-3.637085-13.810318-10.364319-1.989944-6.348137-1.337097-12.359413 3.790558-16.932388 5.160874-4.602601 11.324539-5.173043 17.707871-2.617859 1.366852.547134 2.569076 1.505561 4.129272 2.527481z"/><path d="m231.729462 275.098328c-2.423004-5.331513-1.481568-9.58191 2.364868-12.014344 3.558914-2.25061 8.043472-1.665557 10.847992 1.415223 2.849914 3.130645 2.990661 7.469085.353821 10.907318-3.202073 4.175262-8.791245 4.174652-13.566681-.308197z"/><path d="m118.138397 278.272949c-6.371269.531922-10.285591-2.076996-10.981025-6.988678-.586182-4.140045 2.306533-8.357025 6.421875-9.361786 4.29029-1.047516 8.981399 1.469666 10.146469 5.819397 1.302292 4.862061-.756188 8.323395-5.587319 10.531067z"/><path d="m182.226044 221.71759c3.651367 4.32724 4.204879 8.677262 1.487533 11.939194-2.719116 3.264008-6.316147 4.4841-10.24292 2.502701-3.804794-1.919861-5.458603-5.293961-4.5578-9.57222 1.208572-5.739944 6.642853-7.830551 13.313187-4.869675z"/><path d="m104.410294 301.544464c-3.236878-3.505096-3.598-7.067718-1.294953-10.724487 1.938912-3.078583 4.916763-4.410187 8.51944-3.761658 3.332809.599884 5.868225 2.474243 6.603874 5.906586.766937 3.578338.318344 7.049408-3.025902 9.294769-3.533973 2.372711-7.12429 2.333008-10.802459-.71521z"/><path d="m245.537567 303.651001c-4.792297.59198-7.91391-1.43747-9.404663-5.383636-1.245087-3.295777-.665466-6.674836 2.184036-9.127869 2.73169-2.351654 5.903229-3.058167 9.284897-1.420227 3.326813 1.611419 4.957688 4.289032 4.716629 8.043854-.266067 4.144378-2.2574 6.845977-6.780899 7.887878z"/><path d="m226.530365 351.088654c-4.718521.728607-7.75943-1.027802-9.712906-4.853791-1.526153-2.989074-.942047-5.78009.846695-8.404876 2.146027-3.149079 5.315811-3.736084 8.775299-3.124482 3.932999.695404 6.192597 3.476593 6.551987 7.131867.428695 4.359802-1.820145 7.574035-6.461075 9.251282z"/><path d="m107.101845 320.181946c.77185-4.897248 3.49794-7.555145 7.93251-8.029083 3.612015-.386078 6.358383 1.456268 8.099709 4.640258 1.8022 3.29538 1.289291 6.456879-1.038048 9.22696-2.172768 2.586151-5.072525 3.785736-8.432724 2.844635-4.114105-1.152222-6.308205-4.016724-6.561447-8.68277z"/><path d="m232.602814 314.60321c3.647964-2.845977 7.262115-3.394043 10.828079-.94638 2.74826 1.886413 4.254349 4.705658 3.606308 8.137268-.660645 3.498352-2.735901 5.992706-6.252503 7.020172-3.615554 1.056427-6.533889-.291229-8.792587-3.041809-3.00679-3.661591-2.212265-7.338318.610703-11.169251z"/><path d="m130.736389 351.204102c-5.872948-.431-9.349296-3.471131-9.506286-7.910981-.153824-4.350464 2.609275-7.902099 6.721313-8.639434 4.593246-.823609 8.370758 1.32666 9.875916 5.621704 1.593948 4.548401-.966294 8.719696-7.090943 10.928711z"/><path d="m231.233871 242.824493c2.952637 4.463074 2.192643 8.27678-1.210281 11.516968-2.967743 2.825806-7.893387 2.730835-10.962936.074417-3.363404-2.910675-3.912751-6.411819-1.937073-10.316864 1.891754-3.73912 6.154556-5.481155 10.164795-4.007202 1.347992.495453 2.474167 1.594437 3.945495 2.732681z"/><path d="m196.224503 362.801392c-3.08725-3.657807-3.192521-7.178864-.811402-10.784485 2.24176-3.394654 5.634049-3.922974 9.211197-3.140991 3.356369.733764 5.412094 3.069885 6.014176 6.490692.637161 3.620025-.664567 6.596405-3.697999 8.527679-3.564514 2.269409-7.170181 2.156342-10.715972-1.092895z"/><path d="m210.800201 233.148941c-1.459945 8.097641-7.560531 11.63327-13.020767 7.84259-3.090545-2.145538-4.826431-5.145767-3.691757-9.041977 1.127365-3.871063 3.536774-6.306716 7.895706-6.307251 4.895722-.00061 7.797333 2.338028 8.816818 7.506638z"/><path d="m185.201233 364.518188c-1.855713 4.884491-5.219101 6.91803-9.891968 6.030182-4.046814-.76889-6.310562-3.631195-6.552612-7.726654-.258026-4.365204 1.946838-7.313202 6.064285-8.660614 5.91362-1.93518 10.516663 2.495423 10.380295 10.357086z"/><path d="m129.107513 256.315186c-5.254371-.782303-7.802131-3.794159-7.726661-8.51738.067421-4.219605 2.325714-7.285599 6.738792-8.005982 4.486328-.732345 7.806427 1.125016 9.557892 5.338761 2.194977 5.280746-1.489883 10.26033-8.570023 11.184601z"/><path d="m144.147644 237.229553c-.997223-4.582748-.660095-8.460373 3.643204-10.648147 3.163116-1.608124 6.454269-1.522232 9.353729.752609 2.715958 2.13089 3.734482 5.032364 3.016892 8.412796-.725403 3.417297-2.99292 5.567657-6.289338 6.343994-4.245407.999847-7.434524-.710068-9.724487-4.861252z"/><path d="m157.953461 351.022217c3.402939 4.116424 3.110473 8.038055.093536 11.599579-2.677429 3.160736-6.344391 3.592651-9.960525 1.808838-3.957139-1.952027-5.081177-5.524598-4.276474-9.666474 1.177352-6.060028 7.700408-7.921081 14.143463-3.741943z"/></svg>

<svg version="1.1" id="Layer_1" xmlns="http://www.w3.org/2000/svg" xmlns:xlink="http://www.w3.org/1999/xlink" x="0px" y="0px"
	 width="100%" viewBox="0 0 336 592" enable-background="new 0 0 336 592" xml:space="preserve">
<path fill="#000000" opacity="1.000000" stroke="none" 
	d="
M176.418030,137.517105 
	C184.032196,152.683044 198.035095,160.324081 214.715591,158.671829 
	C228.262527,157.329987 241.401810,145.669220 245.444717,131.387711 
	C245.625412,130.749435 245.628952,130.053436 245.859146,129.438248 
	C246.431656,127.908318 246.783554,126.034134 248.957581,126.071838 
	C251.394623,126.114090 251.860123,128.165619 252.125656,129.914490 
	C253.027313,135.853073 253.201263,141.794922 251.819077,147.726990 
	C247.113739,167.921860 232.410156,179.843246 212.651764,180.446075 
	C190.234375,181.130020 173.849182,167.495605 168.990234,148.327164 
	C167.497421,142.438080 167.294144,136.479630 167.984543,130.489975 
	C168.167313,128.904297 168.480804,127.071136 170.734924,126.906937 
	C173.016602,126.740746 173.387650,128.547119 173.931946,130.081528 
	C174.763687,132.426224 175.489899,134.808365 176.418030,137.517105 
z"/>
<path fill="#000000" opacity="1.000000" stroke="none" 
	d="
M220.210800,115.726105 
	C225.486313,121.842651 226.684387,128.345932 223.383835,135.370605 
	C220.899139,140.658844 214.728760,143.770737 208.393417,143.113190 
	C201.765396,142.425293 196.691879,139.476105 194.583099,132.748871 
	C192.593155,126.400734 193.246002,120.389458 198.373657,115.816483 
	C203.534531,111.213882 209.698196,110.643440 216.081528,113.198624 
	C217.448380,113.745758 218.650604,114.704185 220.210800,115.726105 
z"/>
<path fill="#000000" opacity="1.000000" stroke="none" 
	d="
M231.729462,275.098328 
	C229.306458,269.766815 230.247894,265.516418 234.094330,263.083984 
	C237.653244,260.833374 242.137802,261.418427 244.942322,264.499207 
	C247.792236,267.629852 247.932983,271.968292 245.296143,275.406525 
	C242.094070,279.581787 236.504898,279.581177 231.729462,275.098328 
z"/>
<path fill="#000000" opacity="1.000000" stroke="none" 
	d="
M118.138397,278.272949 
	C111.767128,278.804871 107.852806,276.195953 107.157372,271.284271 
	C106.571190,267.144226 109.463905,262.927246 113.579247,261.922485 
	C117.869537,260.874969 122.560646,263.392151 123.725716,267.741882 
	C125.028008,272.603943 122.969528,276.065277 118.138397,278.272949 
z"/>
<path fill="#000000" opacity="1.000000" stroke="none" 
	d="
M182.226044,221.717590 
	C185.877411,226.044830 186.430923,230.394852 183.713577,233.656784 
	C180.994461,236.920792 177.397430,238.140884 173.470657,236.159485 
	C169.665863,234.239624 168.012054,230.865524 168.912857,226.587265 
	C170.121429,220.847321 175.555710,218.756714 182.226044,221.717590 
z"/>
<path fill="#000000" opacity="1.000000" stroke="none" 
	d="
M104.410294,301.544464 
	C101.173416,298.039368 100.812294,294.476746 103.115341,290.819977 
	C105.054253,287.741394 108.032104,286.409790 111.634781,287.058319 
	C114.967590,287.658203 117.503006,289.532562 118.238655,292.964905 
	C119.005592,296.543243 118.556999,300.014313 115.212753,302.259674 
	C111.678780,304.632385 108.088463,304.592682 104.410294,301.544464 
z"/>
<path fill="#000000" opacity="1.000000" stroke="none" 
	d="
M245.537567,303.651001 
	C240.745270,304.242981 237.623657,302.213531 236.132904,298.267365 
	C234.887817,294.971588 235.467438,291.592529 238.316940,289.139496 
	C241.048630,286.787842 244.220169,286.081329 247.601837,287.719269 
	C250.928650,289.330688 252.559525,292.008301 252.318466,295.763123 
	C252.052399,299.907501 250.061066,302.609100 245.537567,303.651001 
z"/>
<path fill="#000000" opacity="1.000000" stroke="none" 
	d="
M226.530365,351.088654 
	C221.811844,351.817261 218.770935,350.060852 216.817459,346.234863 
	C215.291306,343.245789 215.875412,340.454773 217.664154,337.829987 
	C219.810181,334.680908 222.979965,334.093903 226.439453,334.705505 
	C230.372452,335.400909 232.632050,338.182098 232.991440,341.837372 
	C233.420135,346.197174 231.171295,349.411407 226.530365,351.088654 
z"/>
<path fill="#000000" opacity="1.000000" stroke="none" 
	d="
M107.101845,320.181946 
	C107.873695,315.284698 110.599785,312.626801 115.034355,312.152863 
	C118.646370,311.766785 121.392738,313.609131 123.134064,316.793121 
	C124.936264,320.088501 124.423355,323.250000 122.096016,326.020081 
	C119.923248,328.606232 117.023491,329.805817 113.663292,328.864716 
	C109.549187,327.712494 107.355087,324.847992 107.101845,320.181946 
z"/>
<path fill="#000000" opacity="1.000000" stroke="none" 
	d="
M232.602814,314.603210 
	C236.250778,311.757233 239.864929,311.209167 243.430893,313.656830 
	C246.179153,315.543243 247.685242,318.362488 247.037201,321.794098 
	C246.376556,325.292450 244.301300,327.786804 240.784698,328.814270 
	C237.169144,329.870697 234.250809,328.523041 231.992111,325.772461 
	C228.985321,322.110870 229.779846,318.434143 232.602814,314.603210 
z"/>
<path fill="#000000" opacity="1.000000" stroke="none" 
	d="
M130.736389,351.204102 
	C124.863441,350.773102 121.387093,347.732971 121.230103,343.293121 
	C121.076279,338.942657 123.839378,335.391022 127.951416,334.653687 
	C132.544662,333.830078 136.322174,335.980347 137.827332,340.275391 
	C139.421280,344.823792 136.861038,348.995087 130.736389,351.204102 
z"/>
<path fill="#000000" opacity="1.000000" stroke="none" 
	d="
M231.233871,242.824493 
	C234.186508,247.287567 233.426514,251.101273 230.023590,254.341461 
	C227.055847,257.167267 222.130203,257.072296 219.060654,254.415878 
	C215.697250,251.505203 215.147903,248.004059 217.123581,244.099014 
	C219.015335,240.359894 223.278137,238.617859 227.288376,240.091812 
	C228.636368,240.587265 229.762543,241.686249 231.233871,242.824493 
z"/>
<path fill="#000000" opacity="1.000000" stroke="none" 
	d="
M196.224503,362.801392 
	C193.137253,359.143585 193.031982,355.622528 195.413101,352.016907 
	C197.654861,348.622253 201.047150,348.093933 204.624298,348.875916 
	C207.980667,349.609680 210.036392,351.945801 210.638474,355.366608 
	C211.275635,358.986633 209.973907,361.963013 206.940475,363.894287 
	C203.375961,366.163696 199.770294,366.050629 196.224503,362.801392 
z"/>
<path fill="#000000" opacity="1.000000" stroke="none" 
	d="
M210.800201,233.148941 
	C209.340256,241.246582 203.239670,244.782211 197.779434,240.991531 
	C194.688889,238.845993 192.953003,235.845764 194.087677,231.949554 
	C195.215042,228.078491 197.624451,225.642838 201.983383,225.642303 
	C206.879105,225.641693 209.780716,227.980331 210.800201,233.148941 
z"/>
<path fill="#000000" opacity="1.000000" stroke="none" 
	d="
M185.201233,364.518188 
	C183.345520,369.402679 179.982132,371.436218 175.309265,370.548370 
	C171.262451,369.779480 168.998703,366.917175 168.756653,362.821716 
	C168.498627,358.456512 170.703491,355.508514 174.820938,354.161102 
	C180.734558,352.225922 185.337601,356.656525 185.201233,364.518188 
z"/>
<path fill="#000000" opacity="1.000000" stroke="none" 
	d="
M129.107513,256.315186 
	C123.853142,255.532883 121.305382,252.521027 121.380852,247.797806 
	C121.448273,243.578201 123.706566,240.512207 128.119644,239.791824 
	C132.605972,239.059479 135.926071,240.916840 137.677536,245.130585 
	C139.872513,250.411331 136.187653,255.390915 129.107513,256.315186 
z"/>
<path fill="#000000" opacity="1.000000" stroke="none" 
	d="
M144.147644,237.229553 
	C143.150421,232.646805 143.487549,228.769180 147.790848,226.581406 
	C150.953964,224.973282 154.245117,225.059174 157.144577,227.334015 
	C159.860535,229.464905 160.879059,232.366379 160.161469,235.746811 
	C159.436066,239.164108 157.168549,241.314468 153.872131,242.090805 
	C149.626724,243.090652 146.437607,241.380737 144.147644,237.229553 
z"/>
<path fill="#000000" opacity="1.000000" stroke="none" 
	d="
M157.953461,351.022217 
	C161.356400,355.138641 161.063934,359.060272 158.046997,362.621796 
	C155.369568,365.782532 151.702606,366.214447 148.086472,364.430634 
	C144.129333,362.478607 143.005295,358.906036 143.809998,354.764160 
	C144.987350,348.704132 151.510406,346.843079 157.953461,351.022217 
z"/>
</svg>
